public/assets/landing_page_images/features/Expense Management.svg

<?xml version="1.0" encoding="UTF-8" standalone="no"?>
<!-- Created with Inkscape (http://www.inkscape.org/) -->

<svg
   width="72"
   height="72"
   viewBox="0 0 72 72"
   version="1.1"
   id="svg1"
   xmlns="http://www.w3.org/2000/svg"
   xmlns:svg="http://www.w3.org/2000/svg">
  <defs
     id="defs1" />
  <g
     id="layer1">
    <path
       style="fill:#860626;fill-opacity:1;fill-rule:evenodd;stroke:none"
       d="m 64.351662,59.709573 h -3.4778 c -1.13407,0 -2.04132,0.90682 -2.04132,2.040345 v 1.209094 c 0,1.133525 0.90725,2.07813 2.04132,2.07813 h 3.4778 c 1.13407,0 2.07912,-0.944605 2.07912,-2.07813 v -1.209094 c 0,-1.133525 -0.94505,-2.040345 -2.07912,-2.040345 z m -0.18901,3.060518 h -3.09978 v -0.831252 h 3.09978 z"
       id="path1-0" />
    <path
       style="fill:#860626;fill-opacity:1;fill-rule:evenodd;stroke:none"
       d="m 55.883962,59.709573 h -3.4778 c -1.134067,0 -2.079122,0.90682 -2.079122,2.040345 v 1.209094 c 0,1.133525 0.945055,2.07813 2.079122,2.07813 h 3.4778 c 1.13407,0 2.04132,-0.944605 2.04132,-2.07813 v -1.209094 c 0,-1.133525 -0.90725,-2.040345 -2.04132,-2.040345 z m -0.22681,3.060518 h -3.061979 v -0.831252 h 3.061979 z"
       id="path2-7" />
    <path
       style="fill:#860626;fill-opacity:1;fill-rule:evenodd;stroke:none"
       d="m 47.378467,59.709573 h -3.477804 c -1.134066,0 -2.041319,0.90682 -2.041319,2.040345 v 1.209094 c 0,1.133525 0.907253,2.07813 2.041319,2.07813 h 3.477804 c 1.134066,0 2.04132,-0.944605 2.04132,-2.07813 v -1.209094 c 0,-1.133525 -0.907254,-2.040345 -2.04132,-2.040345 z m -0.189011,3.060518 h -3.099782 v -0.831252 h 3.099782 z"
       id="path3-1" />
    <path
       style="fill:#860626;fill-opacity:1;fill-rule:evenodd;stroke:none"
       d="m 64.351662,53.17291 h -3.4778 c -1.13407,0 -2.04132,0.944604 -2.04132,2.078129 v 1.209094 c 0,1.133525 0.90725,2.040346 2.04132,2.040346 h 3.4778 c 1.13407,0 2.07912,-0.906821 2.07912,-2.040346 v -1.209094 c 0,-1.133525 -0.94505,-2.078129 -2.07912,-2.078129 z m -0.18901,3.098302 h -3.09978 V 55.43996 h 3.09978 z"
       id="path4-7" />
    <path
       style="fill:#860626;fill-opacity:1;fill-rule:evenodd;stroke:none"
       d="m 55.883962,53.17291 h -3.4778 c -1.134067,0 -2.079122,0.944604 -2.079122,2.078129 v 1.209094 c 0,1.133525 0.945055,2.040346 2.079122,2.040346 h 3.4778 c 1.13407,0 2.04132,-0.906821 2.04132,-2.040346 v -1.209094 c 0,-1.133525 -0.90725,-2.078129 -2.04132,-2.078129 z m -0.22681,3.098302 H 52.595173 V 55.43996 h 3.061979 z"
       id="path5-7" />
    <path
       style="fill:#860626;fill-opacity:1;fill-rule:evenodd;stroke:none"
       d="m 47.378467,53.17291 h -3.477804 c -1.134066,0 -2.041319,0.944604 -2.041319,2.078129 v 1.209094 c 0,1.133525 0.907253,2.040346 2.041319,2.040346 h 3.477804 c 1.134066,0 2.04132,-0.906821 2.04132,-2.040346 v -1.209094 c 0,-1.133525 -0.907254,-2.078129 -2.04132,-2.078129 z m -0.189011,3.098302 H 44.089674 V 55.43996 h 3.099782 z"
       id="path6-7" />
    <path
       style="fill:#860626;fill-opacity:1;fill-rule:evenodd;stroke:none"
       d="m 64.351662,46.674031 h -3.4778 c -1.13407,0 -2.04132,0.90682 -2.04132,2.040345 v 1.209094 c 0,1.133526 0.90725,2.07813 2.04132,2.07813 h 3.4778 c 1.13407,0 2.07912,-0.944604 2.07912,-2.07813 v -1.209094 c 0,-1.133525 -0.94505,-2.040345 -2.07912,-2.040345 z m -0.18901,3.060518 h -3.09978 v -0.793467 h 3.09978 z"
       id="path7-7" />
    <path
       style="fill:#860626;fill-opacity:1;fill-rule:evenodd;stroke:none"
       d="m 55.883962,46.674031 h -3.4778 c -1.134067,0 -2.079122,0.90682 -2.079122,2.040345 v 1.209094 c 0,1.133526 0.945055,2.07813 2.079122,2.07813 h 3.4778 c 1.13407,0 2.04132,-0.944604 2.04132,-2.07813 v -1.209094 c 0,-1.133525 -0.90725,-2.040345 -2.04132,-2.040345 z m -0.22681,3.060518 h -3.061979 v -0.793467 h 3.061979 z"
       id="path8-3" />
    <path
       style="fill:#860626;fill-opacity:1;fill-rule:evenodd;stroke:none"
       d="m 47.378467,46.674031 h -3.477804 c -1.134066,0 -2.041319,0.90682 -2.041319,2.040345 v 1.209094 c 0,1.133526 0.907253,2.07813 2.041319,2.07813 h 3.477804 c 1.134066,0 2.04132,-0.944604 2.04132,-2.07813 v -1.209094 c 0,-1.133525 -0.907254,-2.040345 -2.04132,-2.040345 z m -0.189011,3.060518 h -3.099782 v -0.793467 h 3.099782 z"
       id="path9-3" />
    <path
       style="fill:#860626;fill-opacity:1;fill-rule:evenodd;stroke:none"
       d="M 65.712542,30.955812 H 46.471214 V 9.758888 c 0,-0.604547 -0.226813,-1.17131 -0.68044,-1.586936 L 39.477804,1.861995 C 39.06198,1.408584 38.494947,1.181879 37.890111,1.181879 H 3.37669 c -1.247473,0 -2.268133,1.020173 -2.268133,2.267051 v 53.577966 c 0,1.246878 1.02066,2.229266 2.268133,2.229266 h 34.021992 v 6.385527 c 0,2.871597 2.305936,5.176432 5.141102,5.176432 h 23.172758 c 2.83517,0 5.1789,-2.304835 5.1789,-5.176432 V 36.094461 c 0,-2.833814 -2.34373,-5.138649 -5.1789,-5.138649 z M 42.615388,8.171952 H 39.477804 V 5.035866 Z m 26.007924,57.469737 c 0,1.624719 -1.32308,2.947166 -2.91077,2.947166 H 42.539784 c -1.587693,0 -2.910771,-1.322447 -2.910771,-2.947166 V 36.094461 c 0,-1.586936 1.323078,-2.909382 2.910771,-2.909382 h 23.172758 c 1.58769,0 2.91077,1.322446 2.91077,2.909382 z M 3.37669,57.026896 V 3.44893 h 33.870784 v 5.289785 c 0,0.90682 0.756044,1.662504 1.663297,1.662504 h 5.29231 v 20.554593 h -1.663297 c -2.835166,0 -5.141102,2.304835 -5.141102,5.138649 v 1.36023 H 8.215373 c -0.604835,0 -1.096264,0.491194 -1.096264,1.133525 0,0.604547 0.491429,1.095742 1.096264,1.095742 h 29.183309 v 4.382964 H 8.215373 c -0.604835,0 -1.096264,0.528979 -1.096264,1.133526 0,0.604547 0.491429,1.133525 1.096264,1.133525 h 29.183309 v 4.382965 H 8.215373 c -0.604835,0 -1.096264,0.491194 -1.096264,1.095741 0,0.642331 0.491429,1.133525 1.096264,1.133525 h 29.183309 v 4.080692 z"
       id="path10-5" />
    <path
       style="fill:#860626;fill-opacity:1;fill-rule:evenodd;stroke:none"
       d="m 9.53845,23.512329 1.738902,0.680115 c 0.264616,0.944605 0.642638,1.813641 1.134067,2.682677 l -0.756044,1.738072 c -0.189012,0.415626 -0.113407,0.906821 0.226813,1.246878 l 2.646155,2.644893 c 0.34022,0.340057 0.831649,0.415626 1.247473,0.226705 l 1.738902,-0.755684 c 0.831648,0.45341 1.738902,0.831252 2.683957,1.095741 l 0.68044,1.775857 c 0.151209,0.415626 0.567033,0.717899 1.02066,0.717899 h 3.780221 c 0.453627,0 0.869451,-0.302273 1.02066,-0.717899 l 0.68044,-1.775857 c 0.945055,-0.264489 1.852308,-0.642331 2.683957,-1.095741 l 1.738902,0.755684 c 0.415824,0.188921 0.907253,0.113352 1.247473,-0.226705 l 2.646155,-2.644893 c 0.34022,-0.340057 0.415824,-0.831252 0.226813,-1.246878 l -0.756044,-1.738072 c 0.491429,-0.869036 0.869451,-1.738072 1.134066,-2.682677 l 1.738902,-0.680115 c 0.453627,-0.151137 0.718242,-0.566763 0.718242,-1.057957 v -3.740634 c 0,-0.45341 -0.264615,-0.869036 -0.718242,-1.057957 l -1.738902,-0.680115 c -0.264615,-0.90682 -0.642637,-1.81364 -1.134066,-2.682677 l 0.756044,-1.700288 c 0.189011,-0.45341 0.113407,-0.944604 -0.226813,-1.284662 L 33.051428,8.663147 C 32.711208,8.360873 32.219779,8.247521 31.803955,8.436442 L 30.065053,9.192125 C 29.233404,8.738715 28.326151,8.360873 27.381096,8.096384 l -0.68044,-1.775856 c -0.151209,-0.415626 -0.567033,-0.7179 -1.02066,-0.7179 h -3.780221 c -0.453627,0 -0.869451,0.302274 -1.02066,0.7179 l -0.68044,1.775856 C 19.25362,8.360873 18.346366,8.738715 17.514718,9.192125 L 15.775816,8.436442 C 15.359992,8.247521 14.868563,8.360872 14.528343,8.663147 l -2.646155,2.644892 c -0.34022,0.340058 -0.415825,0.831252 -0.226813,1.284662 l 0.756044,1.700288 c -0.491429,0.869037 -0.869451,1.775857 -1.134067,2.682677 L 9.53845,17.655781 c -0.453626,0.188921 -0.718242,0.604547 -0.718242,1.057957 v 3.740634 c 0,0.491194 0.264616,0.90682 0.718242,1.057957 z m 1.512089,-4.042907 1.587693,-0.604547 c 0.34022,-0.113352 0.604836,-0.415626 0.68044,-0.755683 0.264615,-1.133526 0.718242,-2.191483 1.285275,-3.136087 0.226814,-0.340058 0.226814,-0.7179 0.0756,-1.057957 l -0.68044,-1.549152 1.549891,-1.549151 1.54989,0.680115 c 0.34022,0.151137 0.756045,0.113353 1.058462,-0.07557 0.982858,-0.604547 2.04132,-1.020173 3.137584,-1.284662 0.34022,-0.07557 0.642638,-0.340058 0.793847,-0.680115 l 0.60484,-1.586934 h 2.192529 l 0.604835,1.586936 c 0.151209,0.340057 0.415824,0.604546 0.793846,0.680115 1.096265,0.264489 2.154727,0.680115 3.137584,1.284662 0.302418,0.188921 0.718242,0.226705 1.058462,0.07557 l 1.512089,-0.680115 1.587693,1.549151 -0.68044,1.549152 c -0.151209,0.340057 -0.151209,0.717899 0.0378,1.057957 0.604836,0.944604 1.058462,2.002561 1.323078,3.136087 0.0756,0.340057 0.34022,0.642331 0.68044,0.755683 l 1.587693,0.604547 v 2.229267 l -1.587693,0.604546 c -0.34022,0.113353 -0.604836,0.415626 -0.68044,0.793468 -0.264616,1.095741 -0.718242,2.153698 -1.323078,3.136087 -0.189011,0.302273 -0.189011,0.680115 -0.0378,1.020173 l 0.68044,1.549151 -1.587693,1.549151 -1.512089,-0.680115 c -0.34022,-0.151136 -0.756044,-0.113352 -1.058462,0.07557 -0.982857,0.604546 -2.041319,1.020172 -3.137584,1.284662 -0.378022,0.113352 -0.642637,0.377842 -0.793846,0.717899 L 24.88615,33.298434 H 22.693621 L 22.088786,31.74928 c -0.151209,-0.340057 -0.453627,-0.604547 -0.793847,-0.717899 -1.096264,-0.26449 -2.154726,-0.680116 -3.137584,-1.284662 -0.302417,-0.188921 -0.718242,-0.226705 -1.058462,-0.07557 l -1.54989,0.680115 -1.549891,-1.549151 0.68044,-1.549151 c 0.151209,-0.340058 0.151209,-0.7179 -0.0756,-1.020173 -0.567033,-0.982389 -1.02066,-2.040346 -1.285275,-3.136087 -0.0756,-0.377842 -0.34022,-0.680115 -0.68044,-0.793468 l -1.587693,-0.604546 z"
       id="path11-9" />
    <path
       style="fill:#860626;fill-opacity:1;fill-rule:evenodd;stroke:none"
       d="M 64.351662,36.736792 H 43.900663 c -1.134066,0 -2.041319,0.944604 -2.041319,2.07813 v 3.627281 c 0,1.133525 0.907253,2.040345 2.041319,2.040345 h 20.450999 c 1.13407,0 2.07912,-0.90682 2.07912,-2.040345 v -3.627281 c 0,-1.133526 -0.94505,-2.07813 -2.07912,-2.07813 z m -0.18901,5.51649 H 44.089674 v -3.24944 h 20.072978 z"
       id="path12-9" />
    <path
       style="fill:#860626;fill-opacity:1;fill-rule:nonzero;stroke:none"
       d="m 16.040431,23.739034 v -9.105987 c 0,-0.340058 0.226814,-0.566763 0.567034,-0.566763 h 3.780221 c 1.096264,0 1.890111,0.07557 2.38154,0.26449 0.491428,0.188921 0.907253,0.528978 1.20967,0.982388 0.302418,0.45341 0.453627,1.020173 0.453627,1.62472 0,0.755684 -0.226813,1.398015 -0.68044,1.889209 -0.264615,0.302273 -0.567033,0.491194 -0.982857,0.680115 -0.151209,0.07557 -0.302418,0.226705 -0.302418,0.415626 -0.0378,0.188921 0,0.377842 0.151209,0.491194 0.0756,0.07557 0.151209,0.151137 0.226813,0.226706 0.264615,0.302273 0.68044,0.869036 1.171869,1.662503 l 0.680439,1.133526 c 0.113407,0.188921 0.113407,0.377842 0.0378,0.566762 -0.113407,0.188921 -0.302418,0.302274 -0.491429,0.302274 H 23.07164 c -0.189011,0 -0.34022,-0.113353 -0.453626,-0.264489 L 21.294939,22.07653 c -0.529231,-0.793467 -0.907253,-1.322446 -1.096264,-1.511367 -0.189011,-0.226705 -0.415824,-0.340057 -0.604835,-0.415626 -0.226814,-0.07557 -0.529231,-0.113352 -0.907254,-0.113352 -0.151208,0 -0.302417,0.03778 -0.415824,0.151136 -0.113407,0.113353 -0.151209,0.26449 -0.151209,0.415626 v 3.136087 c 0,0.302274 -0.264615,0.566763 -0.567033,0.566763 h -0.945055 c -0.34022,0 -0.567034,-0.264489 -0.567034,-0.566763 z m 2.646155,-5.365353 h 0.945056 c 0.982857,0 1.625495,-0.03778 1.852308,-0.113353 0.264616,-0.07557 0.453627,-0.226705 0.604836,-0.415626 0.113406,-0.226705 0.189011,-0.491194 0.189011,-0.793467 0,-0.340058 -0.0756,-0.604547 -0.264616,-0.831252 -0.189011,-0.226705 -0.453626,-0.340058 -0.793846,-0.415626 -0.151209,0 -0.642638,0 -1.512089,0 h -1.02066 c -0.34022,0 -0.567033,0.226705 -0.567033,0.566762 v 1.435799 c 0,0.340058 0.226813,0.566763 0.567033,0.566763 z m 7.862861,-1.511367 h 0.718242 c 0.302418,0 0.567033,0.264489 0.567033,0.566762 v 0.528979 c 0.226814,-0.377842 0.567033,-0.680115 0.945056,-0.90682 0.415824,-0.226706 0.869451,-0.340058 1.360879,-0.340058 0.869451,0 1.587693,0.340058 2.192529,1.020173 0.604835,0.680115 0.907253,1.624719 0.907253,2.833813 0,1.246878 -0.302418,2.191483 -0.907253,2.871598 -0.604836,0.717899 -1.323078,1.057957 -2.192529,1.057957 -0.415824,0 -0.793846,-0.07557 -1.134066,-0.264489 -0.0378,-0.03778 -0.113407,-0.03778 -0.189011,-0.07557 -0.189011,-0.113352 -0.378022,-0.113352 -0.567033,-0.03778 -0.189011,0.113353 -0.302418,0.302273 -0.302418,0.491194 v 1.926993 c 0,0.340058 -0.226813,0.566763 -0.567033,0.566763 h -0.831649 c -0.302418,0 -0.567033,-0.226705 -0.567033,-0.566763 v -9.105987 c 0,-0.302273 0.264615,-0.566762 0.567033,-0.566762 z m 1.398682,3.627281 c 0,0.831252 0.151209,1.435799 0.491429,1.851425 0.302417,0.377841 0.718242,0.604546 1.209671,0.604546 0.453626,0 0.831648,-0.18892 1.134066,-0.566762 0.302418,-0.377842 0.453627,-0.982389 0.453627,-1.813641 0,-0.793468 -0.151209,-1.36023 -0.491429,-1.738072 -0.302418,-0.377842 -0.68044,-0.566763 -1.134067,-0.566763 -0.491428,0 -0.907253,0.188921 -1.209671,0.566763 -0.302417,0.377842 -0.453626,0.90682 -0.453626,1.662504 z"
       id="path13-8" />
  </g>
</svg>

<svg width="72" height="72" viewBox="0 0 72 72" fill="none" xmlns="http://www.w3.org/2000/svg">
<path d="M23.7963 28.3835C28.0998 28.3835 31.601 24.8823 31.601 20.5788C31.601 16.2752 28.0998 12.7741 23.7963 12.7741C19.4927 12.7741 15.9916 16.2752 15.9916 20.5788C15.9916 24.8823 19.4927 28.3835 23.7963 28.3835ZM23.7963 15.0241C26.8591 15.0241 29.351 17.516 29.351 20.5788C29.351 23.6416 26.8591 26.1335 23.7963 26.1335C20.7335 26.1335 18.2416 23.6416 18.2416 20.5788C18.2416 17.516 20.7335 15.0241 23.7963 15.0241ZM9.53986 23.5034L11.2977 24.18C11.5668 25.1159 11.9402 26.0165 12.4125 26.8694L11.6475 28.5917C11.4587 29.017 11.5511 29.5148 11.8803 29.8439L14.5316 32.4951C14.8607 32.8241 15.3581 32.9168 15.7836 32.7277L17.5067 31.9624C18.3596 32.4347 19.2599 32.808 20.195 33.077L20.8718 34.8352C21.0389 35.2695 21.4563 35.556 21.9217 35.556H25.671C26.1364 35.556 26.5537 35.2695 26.7209 34.8352L27.3975 33.0775C28.3333 32.8084 29.2338 32.435 30.0869 31.9625L31.8092 32.7275C32.2345 32.9165 32.732 32.824 33.0614 32.4949L35.7126 29.8437C36.0416 29.5147 36.134 29.017 35.9452 28.5916L35.1799 26.8685C35.6521 26.0156 36.0255 25.1153 36.2945 24.1802L38.0528 23.5034C38.4871 23.3363 38.7737 22.9189 38.7737 22.4535V18.7041C38.7737 18.2386 38.4871 17.8214 38.0528 17.6542L36.2952 16.9777C36.026 16.0419 35.6527 15.1414 35.1802 14.2883L35.9452 12.566C36.134 12.1406 36.0416 11.6429 35.7126 11.3138L33.0614 8.66264C32.7323 8.33372 32.2346 8.24091 31.8092 8.42991L30.086 9.19519C29.2331 8.72283 28.3328 8.34961 27.3977 8.08059L26.721 6.32236C26.5539 5.88797 26.1366 5.60152 25.6711 5.60152H21.9219C21.4564 5.60152 21.0392 5.88811 20.872 6.32236L20.1952 8.08059C19.26 8.34961 18.3597 8.72283 17.5068 9.19519L15.7837 8.42991C15.3584 8.24091 14.8607 8.3333 14.5318 8.6625L11.88 11.314C11.5509 11.643 11.4585 12.1407 11.6474 12.5661L12.4127 14.2889C11.9405 15.1417 11.567 16.0421 11.2978 16.9775L9.53972 17.6542C9.10547 17.8213 8.81888 18.2386 8.81888 18.7041V22.4535C8.81902 22.9189 9.10561 23.3363 9.53986 23.5034ZM11.069 19.4766L12.6435 18.8705C12.9895 18.7373 13.2479 18.442 13.3336 18.0811C13.5972 16.974 14.0341 15.9202 14.6325 14.9486C14.8271 14.6326 14.8532 14.2411 14.7028 13.9019L14.0172 12.3587L15.576 10.7999L17.1197 11.4854C17.4585 11.6359 17.8502 11.6099 18.1661 11.4152C19.1378 10.8169 20.1916 10.38 21.2984 10.1166C21.6591 10.0306 21.9545 9.77245 22.0877 9.42623L22.6939 7.85152H24.8984L25.5046 9.42609C25.6378 9.77231 25.9332 10.0305 26.2939 10.1164C27.4006 10.3798 28.4545 10.8167 29.4262 11.4151C29.742 11.6097 30.1338 11.6357 30.4726 11.4854L32.0164 10.7999L33.5751 12.3587L32.8898 13.9015C32.7393 14.2405 32.7655 14.6322 32.9601 14.948C33.5585 15.9196 33.9955 16.9737 34.2591 18.0811C34.3448 18.442 34.603 18.7374 34.9492 18.8706L36.5233 19.4766V21.681L34.9485 22.2871C34.6023 22.4203 34.3441 22.7157 34.2584 23.0766C33.995 24.1833 33.5582 25.237 32.9597 26.2087C32.7652 26.5247 32.739 26.9162 32.8895 27.2552L33.5751 28.7987L32.0164 30.3576L30.4734 29.6723C30.1347 29.5217 29.743 29.5478 29.4269 29.7426C28.4553 30.341 27.4012 30.778 26.2939 31.0414C25.9331 31.1273 25.6376 31.3855 25.5045 31.7317L24.8984 33.3059H22.6941L22.0878 31.7312C21.9547 31.3851 21.6592 31.1268 21.2985 31.0409C20.1918 30.7775 19.1379 30.3405 18.1662 29.7422C17.8504 29.5476 17.4586 29.5215 17.1198 29.672L15.5762 30.3576L14.0174 28.7989L14.7026 27.2561C14.8531 26.9169 14.8269 26.5254 14.6323 26.2094C14.0341 25.2381 13.5972 24.184 13.3335 23.0763C13.2477 22.7154 12.9895 22.42 12.6433 22.2868L11.0692 21.6809L11.069 19.4766ZM24.7788 22.4331C24.8016 22.4066 24.8231 22.3817 24.8108 22.2778C24.7965 22.1614 24.759 21.8517 23.6202 21.6648C21.2157 21.2701 20.7915 19.8647 20.7526 19.0621C20.6927 17.8303 21.4509 16.785 22.6713 16.3628V16.3519C22.6713 15.7306 23.175 15.2269 23.7963 15.2269C24.4164 15.2269 24.9195 15.7288 24.9213 16.3485C25.7527 16.6361 26.439 17.2543 26.8 18.114C27.0406 18.687 26.7712 19.3463 26.1983 19.5868C25.6262 19.8271 24.9661 19.558 24.7255 18.9851C24.4825 18.4068 23.8659 18.3776 23.5388 18.4518C23.4082 18.4814 22.983 18.6052 22.9999 18.953C23.014 19.2424 23.623 19.3852 23.9847 19.4445C26.3025 19.8252 26.9279 21.0479 27.0443 22.0067C27.1311 22.7219 26.9362 23.3783 26.4805 23.905C26.1058 24.3384 25.5552 24.6621 24.9209 24.8377C24.9038 25.4441 24.4069 25.9305 23.7963 25.9305C23.1788 25.9305 22.6775 25.4332 22.6713 24.8171C21.6184 24.4882 20.8247 23.7019 20.5619 22.6477C20.4116 22.0448 20.7783 21.4342 21.381 21.2839C21.9849 21.1335 22.5945 21.5004 22.7448 22.1032C22.8655 22.5869 23.4166 22.7455 23.8566 22.736C24.2945 22.7257 24.6585 22.5723 24.7788 22.4331ZM65.7069 30.9361H46.4677V9.74447C46.4677 9.13458 46.2397 8.58417 45.8085 8.15273L39.4864 1.83066C39.0551 1.39922 38.5047 1.17113 37.8945 1.17113H3.37612C2.13483 1.17127 1.125 2.18095 1.125 3.42225V57.0222C1.125 58.2635 2.13483 59.2732 3.37612 59.2732H37.3954V65.6606C37.3954 68.5104 39.7138 70.8287 42.5635 70.8287H65.7069C68.5567 70.8287 70.875 68.5104 70.875 65.6606V36.1041C70.875 33.2544 68.5567 30.9361 65.7069 30.9361ZM42.6263 8.15302H39.4858V5.01244L42.6263 8.15302ZM3.375 57.0222L3.37612 3.42127L37.2358 3.42197V8.71509C37.2358 9.64589 37.9931 10.403 38.9237 10.403H44.2177V30.9361H42.5635C39.7138 30.9361 37.3954 33.2544 37.3954 36.1041V37.4424H8.24372C7.62244 37.4424 7.11872 37.9461 7.11872 38.5674C7.11872 39.1887 7.62244 39.6924 8.24372 39.6924H37.3954V44.0726H8.24372C7.62244 44.0726 7.11872 44.5763 7.11872 45.1976C7.11872 45.8189 7.62244 46.3226 8.24372 46.3226H37.3954V50.7028H8.24372C7.62244 50.7028 7.11872 51.2065 7.11872 51.8278C7.11872 52.449 7.62244 52.9528 8.24372 52.9528H37.3954V57.0232L3.375 57.0222ZM68.625 65.6606C68.625 67.2697 67.3159 68.5787 65.7069 68.5787H42.5635C40.9545 68.5787 39.6454 67.2697 39.6454 65.6606V36.1041C39.6454 34.495 40.9545 33.1861 42.5635 33.1861H65.7069C67.3159 33.1861 68.625 34.4952 68.625 36.1041V65.6606ZM64.3591 36.7393H43.9113C42.7784 36.7393 41.8569 37.6609 41.8569 38.7937V42.4418C41.8569 43.5746 42.7785 44.4961 43.9113 44.4961H64.3591C65.492 44.4961 66.4135 43.5745 66.4135 42.4418V38.7937C66.4135 37.6609 65.492 36.7393 64.3591 36.7393ZM64.1635 42.2463H44.1068V38.9893H64.1635V42.2463ZM47.3851 46.6729H43.9113C42.7784 46.6729 41.8569 47.5945 41.8569 48.7273V49.9357C41.8569 51.0684 42.7785 51.99 43.9113 51.99H47.3851C48.518 51.99 49.4395 51.0684 49.4395 49.9357V48.7273C49.4395 47.5944 48.518 46.6729 47.3851 46.6729ZM47.1895 49.74H44.1068V48.9229H47.1895V49.74ZM55.872 46.6729H52.3981C51.2654 46.6729 50.3439 47.5945 50.3439 48.7273V49.9357C50.3439 51.0684 51.2655 51.99 52.3981 51.99H55.872C57.0049 51.99 57.9264 51.0684 57.9264 49.9357V48.7273C57.9265 47.5944 57.0049 46.6729 55.872 46.6729ZM55.6765 49.74H52.5939V48.9229H55.6765V49.74ZM64.3591 46.6729H60.8853C59.7524 46.6729 58.8309 47.5945 58.8309 48.7273V49.9357C58.8309 51.0684 59.7525 51.99 60.8853 51.99H64.3591C65.492 51.99 66.4135 51.0684 66.4135 49.9357V48.7273C66.4135 47.5944 65.492 46.6729 64.3591 46.6729ZM64.1635 49.74H61.0807V48.9229H64.1635V49.74ZM47.3851 53.1906H43.9113C42.7784 53.1906 41.8569 54.1122 41.8569 55.245V56.4532C41.8569 57.5861 42.7785 58.5076 43.9113 58.5076H47.3851C48.518 58.5076 49.4395 57.5859 49.4395 56.4532V55.245C49.4395 54.1122 48.518 53.1906 47.3851 53.1906ZM47.1895 56.2577H44.1068V55.4406H47.1895V56.2577ZM55.872 53.1906H52.3981C51.2654 53.1906 50.3439 54.1122 50.3439 55.245V56.4532C50.3439 57.5861 51.2655 58.5076 52.3981 58.5076H55.872C57.0049 58.5076 57.9264 57.5859 57.9264 56.4532V55.245C57.9265 54.1122 57.0049 53.1906 55.872 53.1906ZM55.6765 56.2577H52.5939V55.4406H55.6765V56.2577ZM64.3591 53.1906H60.8853C59.7524 53.1906 58.8309 54.1122 58.8309 55.245V56.4532C58.8309 57.5861 59.7525 58.5076 60.8853 58.5076H64.3591C65.492 58.5076 66.4135 57.5859 66.4135 56.4532V55.245C66.4135 54.1122 65.492 53.1906 64.3591 53.1906ZM64.1635 56.2577H61.0807V55.4406H64.1635V56.2577ZM47.3851 59.7084H43.9113C42.7784 59.7084 41.8569 60.63 41.8569 61.7628V62.971C41.8569 64.1039 42.7785 65.0254 43.9113 65.0254H47.3851C48.518 65.0254 49.4395 64.1038 49.4395 62.971V61.7628C49.4395 60.6299 48.518 59.7084 47.3851 59.7084ZM47.1895 62.7756H44.1068V61.9584H47.1895V62.7756ZM55.872 59.7084H52.3981C51.2654 59.7084 50.3439 60.63 50.3439 61.7628V62.971C50.3439 64.1039 51.2655 65.0254 52.3981 65.0254H55.872C57.0049 65.0254 57.9264 64.1038 57.9264 62.971V61.7628C57.9265 60.6299 57.0049 59.7084 55.872 59.7084ZM55.6765 62.7756H52.5939V61.9584H55.6765V62.7756ZM64.3591 59.7084H60.8853C59.7524 59.7084 58.8309 60.63 58.8309 61.7628V62.971C58.8309 64.1039 59.7525 65.0254 60.8853 65.0254H64.3591C65.492 65.0254 66.4135 64.1038 66.4135 62.971V61.7628C66.4135 60.6299 65.492 59.7084 64.3591 59.7084ZM64.1635 62.7756H61.0807V61.9584H64.1635V62.7756Z" fill="#215679"/>
</svg>
